src/assets/svg/icons/star-transp.svg

<svg width="27" height="26" viewBox="0 0 27 26" fill="none" xmlns="http://www.w3.org/2000/svg">
<path d="M24.75 9.0625L17.9062 8.07812L14.8125 1.84375C14.2969 0.765625 12.7031 0.71875 12.1406 1.84375L9.09375 8.07812L2.20312 9.0625C0.984375 9.25 0.515625 10.75 1.40625 11.6406L6.32812 16.4688L5.15625 23.2656C4.96875 24.4844 6.28125 25.4219 7.35938 24.8594L13.5 21.625L19.5938 24.8594C20.6719 25.4219 21.9844 24.4844 21.7969 23.2656L20.625 16.4688L25.5469 11.6406C26.4375 10.75 25.9688 9.25 24.75 9.0625ZM18.1875 15.6719L19.3125 22.1406L13.5 19.0938L7.64062 22.1406L8.76562 15.6719L4.03125 11.0781L10.5469 10.1406L13.5 4.23438L16.4062 10.1406L22.9219 11.0781L18.1875 15.6719Z" fill="#F95959"/>
</svg>

<svg width="27" height="26" fill="none" xmlns="http://www.w3.org/2000/svg"><path d="m24.75 9.063-6.844-.985-3.093-6.234c-.516-1.078-2.11-1.125-2.672 0L9.094 8.078l-6.89.985C.983 9.25.515 10.75 1.405 11.64l4.922 4.828-1.172 6.797c-.187 1.218 1.125 2.156 2.203 1.593l6.141-3.234 6.094 3.234c1.078.563 2.39-.375 2.203-1.593l-1.172-6.797 4.922-4.828c.89-.891.422-2.391-.797-2.579zm-6.563 6.609 1.125 6.469-5.812-3.047-5.86 3.047 1.126-6.47-4.735-4.593 6.516-.937L13.5 4.234l2.906 5.907 6.516.937-4.735 4.594z" fill="#F95959"/></svg>
